X:1
T:Cawler Herring. RH.166
T:Cawler Herring. RH.166
T:Caller Herring,aka. RH.166
T:by Nathaniel Gow
C:by Nathaniel Gow
L:1/8
Q:1/2=70
M:4/4
K:D
V:1 treble 
V:1
 A | d2 d>d c2 de | fBe>d c>ABc | d2 d>d c2 de | fgec d2 z :: d' | .c'.b.a.g .f.e.d.d' | %7
 .c'.b.a.g .f.e.d.d' | .c'.b.a.g gfga | bBe>d cABc | d2 d>d c2 de | fBe>d cABc | d2 d>d c2 de | %13
 fgec"^z added" d2 z :: a | d'2 d'>d' c'2 dc | bagf efg^g | a2 a>a g2 ab | c'd'c'^g a2 z f | %19
 g2 gg f2 ga | bBed cABc | d2 d>d c2 d>e | fgec"^ditto" d2 z :| %23

